img/footer-open-source.svg

<svg width="24" height="24" viewBox="0 0 24 24" fill="none" xmlns="http://www.w3.org/2000/svg">
    <path
        d="M23.85 21.4261L22.07 18.5161C22.0223 18.4379 21.998 18.3477 22 18.2561V14.1261C22 12.3461 20.29 11.0561 18.48 9.67613C18.4235 9.63333 18.3765 9.5792 18.342 9.51722C18.3076 9.45523 18.2865 9.38675 18.28 9.31613C18.2746 9.24341 18.2842 9.17036 18.3083 9.10153C18.3324 9.0327 18.3704 8.96959 18.42 8.91613C19.2176 8.18843 19.7543 7.21901 19.9476 6.15676C20.1409 5.09451 19.9801 3.99817 19.49 3.03613C19.1249 2.3284 18.5986 1.7164 17.9535 1.24953C17.3084 0.782657 16.5625 0.473992 15.7761 0.348443C14.9897 0.222895 14.1849 0.28398 13.4264 0.526769C12.668 0.769557 11.9773 1.18725 11.41 1.74613L10.35 2.74613C10.2604 2.83348 10.1402 2.88237 10.015 2.88237C9.88984 2.88237 9.76963 2.83348 9.68 2.74613L8.62 1.74613C8.05176 1.18725 7.36022 0.769615 6.60107 0.526864C5.84192 0.284114 5.03637 0.223031 4.24929 0.348535C3.46221 0.474039 2.71561 0.782623 2.0696 1.24944C1.42359 1.71625 0.896234 2.32824 0.529996 3.03613C0.0712553 3.97975 -0.0790193 5.04376 0.100451 6.07751C0.279922 7.11126 0.780043 8.06236 1.53 8.79613L9.29 16.7961C9.39004 16.8988 9.50986 16.98 9.64221 17.035C9.77456 17.09 9.91668 17.1176 10.06 17.1161C10.2048 17.1178 10.3485 17.0904 10.4825 17.0354C10.6165 16.9804 10.7381 16.899 10.84 16.7961C10.9225 16.7101 10.9793 16.6027 11.004 16.4861C11.0288 16.3695 11.0204 16.2483 10.98 16.1361C10.8286 15.6925 10.7607 15.2245 10.78 14.7561C10.8094 14.1798 10.9714 13.6181 11.2535 13.1146C11.5355 12.6112 11.9299 12.1796 12.406 11.8535C12.8821 11.5274 13.427 11.3156 13.9983 11.2345C14.5697 11.1535 15.152 11.2053 15.7 11.3861C15.7886 11.4152 15.8836 11.4184 15.9739 11.3954C16.0643 11.3724 16.1462 11.3241 16.21 11.2561L16.36 11.1061C16.445 11.0188 16.559 10.9655 16.6805 10.9563C16.8021 10.9471 16.9228 10.9826 17.02 11.0561L17.32 11.2861C18.54 12.2061 20.05 13.3561 20.05 14.1361V18.6861C20.0494 18.8734 20.1014 19.057 20.2 19.2161L22.2 22.4761C22.2519 22.6119 22.3328 22.7347 22.437 22.8361C22.5412 22.9374 22.6663 23.0148 22.8034 23.0628C22.9406 23.1109 23.0866 23.1285 23.2313 23.1143C23.376 23.1002 23.5158 23.0547 23.6411 22.981C23.7664 22.9073 23.8741 22.8072 23.9567 22.6876C24.0394 22.568 24.095 22.4319 24.1196 22.2886C24.1442 22.1454 24.1374 21.9985 24.0994 21.8581C24.0615 21.7178 23.9935 21.5875 23.9 21.4761L23.85 21.4261Z"
        fill="#B3B8D2"/>
    <path
        d="M16.09 13.1961C15.6537 12.7991 15.0849 12.5791 14.495 12.5791C13.9051 12.5791 13.3363 12.7991 12.9 13.1961C12.6632 13.4054 12.4704 13.6597 12.333 13.9442C12.1955 14.2288 12.1161 14.5378 12.0993 14.8534C12.0826 15.169 12.1288 15.4847 12.2354 15.7822C12.3419 16.0797 12.5067 16.353 12.72 16.5861L14.35 18.3561C14.4307 18.4514 14.4765 18.5713 14.48 18.6961V19.6961C14.48 20.9961 16 22.2861 16.48 22.6461C16.6349 22.7659 16.8242 22.8325 17.02 22.8361C17.2022 22.8349 17.3795 22.7771 17.5275 22.6707C17.6754 22.5644 17.7867 22.4147 17.846 22.2424C17.9053 22.0701 17.9096 21.8836 17.8584 21.7087C17.8071 21.5339 17.7029 21.3792 17.56 21.2661C16.9911 20.869 16.5388 20.3269 16.25 19.6961V18.1261C16.2512 17.9074 16.1689 17.6964 16.02 17.5361L14.02 15.3561C13.9611 15.2977 13.9155 15.2272 13.8861 15.1496C13.8568 15.072 13.8445 14.9889 13.85 14.9061C13.8613 14.738 13.9364 14.5806 14.06 14.4661C14.1771 14.3621 14.3283 14.3047 14.485 14.3047C14.6416 14.3047 14.7929 14.3621 14.91 14.4661L16.91 16.3261C17.0797 16.4839 17.3052 16.5679 17.5368 16.5594C17.7684 16.551 17.9872 16.4509 18.145 16.2811C18.3028 16.1114 18.3867 15.8859 18.3783 15.6543C18.3698 15.4227 18.2697 15.2039 18.1 15.0461L16.09 13.1961Z"
        fill="#B3B8D2"/>
</svg>

<svg width="24" height="24" fill="none" xmlns="http://www.w3.org/2000/svg">
    <path d="m23.85 21.426-1.78-2.91a.48.48 0 0 1-.07-.26v-4.13c0-1.78-1.71-3.07-3.52-4.45a.511.511 0 0 1-.2-.36.53.53 0 0 1 .14-.4 4.93 4.93 0 0 0 1.07-5.88 5.08 5.08 0 0 0-8.08-1.29l-1.06 1a.48.48 0 0 1-.67 0l-1.06-1a5.09 5.09 0 0 0-8.09 1.29 5 5 0 0 0 1 5.76l7.76 8a1.059 1.059 0 0 0 .77.32 1.08 1.08 0 0 0 .78-.32.64.64 0 0 0 .14-.66 3.79 3.79 0 0 1-.2-1.38 3.749 3.749 0 0 1 4.92-3.37.49.49 0 0 0 .51-.13l.15-.15a.5.5 0 0 1 .66-.05l.3.23c1.22.92 2.73 2.07 2.73 2.85v4.55a1 1 0 0 0 .15.53l2 3.26a1 1 0 1 0 1.7-1l-.05-.05Z" fill="#B3B8D2"/>
    <path d="M16.09 13.196a2.37 2.37 0 0 0-3.19 0 2.38 2.38 0 0 0-.18 3.39l1.63 1.77a.55.55 0 0 1 .13.34v1c0 1.3 1.52 2.59 2 2.95a.91.91 0 0 0 .54.19.88.88 0 0 0 .54-1.57 3.889 3.889 0 0 1-1.31-1.57v-1.57a.86.86 0 0 0-.23-.59l-2-2.18a.58.58 0 0 1-.17-.45.66.66 0 0 1 .21-.44.64.64 0 0 1 .85 0l2 1.86a.874.874 0 1 0 1.19-1.28l-2.01-1.85Z" fill="#B3B8D2"/>
</svg>
